src/assets/img/providers/betsoft.svg

<svg width="80" height="26" viewBox="0 0 80 26" fill="none" xmlns="http://www.w3.org/2000/svg">
<g clip-path="url(#clip0_4046_7039)">
<path fill-rule="evenodd" clip-rule="evenodd" d="M47.1451 4.31828C47.1451 3.16186 47.5972 2.08984 48.4238 1.28268C50.6852 -0.926351 54.4998 0.0864851 55.3371 3.17447C55.4386 3.55024 55.4868 4.10549 55.4816 4.84022C55.4629 7.50877 55.4596 10.0337 55.4719 12.4151C55.4719 12.4333 55.4629 12.4423 55.4448 12.4423H52.7371C52.7021 12.4423 52.685 12.4248 52.6857 12.3899C52.6882 9.68191 52.6902 7.00785 52.6915 4.36775C52.6925 2.41193 49.9081 2.44395 49.9033 4.37066C49.8968 7.00818 49.8945 9.68094 49.8965 12.3889C49.8965 12.4245 49.8787 12.4423 49.8431 12.4423H47.1597C47.1435 12.4423 47.1354 12.4339 47.1354 12.4171C47.1406 9.74141 47.1438 7.04181 47.1451 4.31828ZM32.7937 2.94162L32.7898 12.4064C32.7898 12.4159 32.786 12.4251 32.7793 12.4318C32.7726 12.4385 32.7635 12.4423 32.7539 12.4423H30.0424C30.0328 12.4423 30.0237 12.4385 30.017 12.4318C30.0103 12.4251 30.0065 12.4159 30.0065 12.4064L30.0123 2.94551C30.0123 2.93599 30.0085 2.92686 30.0018 2.92012C29.995 2.91339 29.9859 2.90961 29.9764 2.90961L27.2774 2.91252C27.2679 2.91252 27.2588 2.90874 27.2521 2.90201C27.2453 2.89527 27.2415 2.88614 27.2415 2.87662L27.2464 0.136923C27.2464 0.127403 27.2502 0.118272 27.2569 0.111541C27.2636 0.104809 27.2728 0.101027 27.2823 0.101027L35.2598 0.0961768C35.2694 0.0961768 35.2785 0.0999588 35.2852 0.10669C35.2919 0.113422 35.2957 0.122552 35.2957 0.132072L35.2909 2.87177C35.2909 2.88129 35.2871 2.89042 35.2804 2.89716C35.2736 2.90389 35.2645 2.90767 35.255 2.90767L32.8296 2.90573C32.8201 2.90573 32.811 2.90951 32.8042 2.91624C32.7975 2.92297 32.7937 2.9321 32.7937 2.94162ZM15.5881 3.22587C15.0885 1.39326 13.4839 0.0990826 11.5504 0.0971423C10.3124 0.0958488 9.04996 0.0961724 7.76289 0.0981127C7.68463 0.0981127 7.6455 0.137242 7.6455 0.215501V12.4423C7.6455 12.4487 7.64806 12.4549 7.65261 12.4594C7.65716 12.464 7.66332 12.4665 7.66976 12.4665H15.0157C15.0261 12.4665 15.0364 12.4638 15.0455 12.4587C15.0547 12.4536 15.0624 12.4463 15.0681 12.4374C15.5092 11.7376 15.7272 10.9644 15.722 10.1178C15.7123 8.43299 15.7116 6.67993 15.7201 4.85864C15.7239 4.10645 15.68 3.56219 15.5881 3.22587ZM10.4095 11.5478V2.95617C10.4095 2.94228 10.415 2.92895 10.4248 2.91913C10.4346 2.9093 10.448 2.90378 10.4618 2.90378H11.4931C11.8695 2.90378 12.2306 3.05731 12.4967 3.33058C12.7629 3.60385 12.9124 3.97448 12.9124 4.36095V10.143C12.9124 10.5295 12.7629 10.9001 12.4967 11.1734C12.2306 11.4467 11.8695 11.6002 11.4931 11.6002H10.4618C10.448 11.6002 10.4346 11.5947 10.4248 11.5849C10.415 11.575 10.4095 11.5617 10.4095 11.5478ZM25.2624 11.5934H20.8551C20.8445 11.5934 20.8344 11.5892 20.8269 11.5817C20.8195 11.5743 20.8153 11.5642 20.8153 11.5536V2.94839C20.8153 2.93784 20.8195 2.92773 20.8269 2.92027C20.8344 2.91281 20.8445 2.90862 20.8551 2.90862L25.2372 2.91153C25.2424 2.91153 25.2476 2.9105 25.2524 2.9085C25.2573 2.9065 25.2617 2.90357 25.2653 2.89988C25.269 2.89618 25.272 2.8918 25.274 2.88697C25.276 2.88215 25.277 2.87697 25.277 2.87175L25.2867 0.13787C25.2867 0.127321 25.2825 0.117204 25.275 0.109745C25.2676 0.102285 25.2575 0.0980945 25.2469 0.0980945L18.0707 0.0971242C18.0602 0.0971242 18.0501 0.101315 18.0426 0.108774C18.0351 0.116234 18.031 0.126351 18.031 0.136901L18.0251 12.4025C18.0251 12.413 18.0293 12.4232 18.0368 12.4306C18.0442 12.4381 18.0544 12.4423 18.0649 12.4423H25.2624C25.273 12.4423 25.2831 12.4381 25.2906 12.4306C25.298 12.4232 25.3022 12.413 25.3022 12.4025V11.6332C25.3022 11.6226 25.298 11.6125 25.2906 11.605C25.2831 11.5976 25.273 11.5934 25.2624 11.5934ZM38.1693 1.63285C37.5678 2.34397 37.2205 3.2627 37.2069 4.19599C37.1869 5.64992 37.184 7.15171 37.1982 8.70136C37.2098 10.0479 37.5901 11.3392 38.4109 12.3908C38.4374 12.4251 38.4723 12.4423 38.5157 12.4423H42.9589C43.0107 12.4423 43.0171 12.4251 42.9783 12.3908C42.7857 12.2242 42.5791 12.0582 42.3705 11.8906C41.8956 11.509 41.4107 11.1194 41.0574 10.696C40.3512 9.85001 39.9925 8.83621 39.9815 7.65457C39.9738 6.75233 39.9764 5.67449 39.9893 4.42106C39.9919 4.16688 40.0239 3.96153 40.0854 3.80501C40.5433 2.63307 42.2245 2.59233 42.6815 3.77688C42.7559 3.97091 42.7895 4.26681 42.7824 4.66457C42.7727 5.20138 42.772 5.72462 42.7804 6.23427C42.7804 6.24379 42.7842 6.25292 42.7909 6.25965C42.7977 6.26638 42.8068 6.27016 42.8163 6.27016H45.5298C45.536 6.27017 45.5422 6.26891 45.5479 6.26646C45.5536 6.26401 45.5588 6.26042 45.5631 6.25591C45.5674 6.25139 45.5709 6.24603 45.5731 6.24015C45.5754 6.23427 45.5765 6.22798 45.5764 6.22166C45.5648 5.6829 45.5664 5.16904 45.5812 4.68009C45.5987 4.11223 45.5567 3.62877 45.4551 3.22972C45.0389 1.59307 43.6196 0.302776 41.8966 0.126209C40.3929 -0.0283678 39.1505 0.473846 38.1693 1.63285ZM64.6466 11.5934H60.1781C60.1762 11.5934 60.1742 11.5932 60.1723 11.5928L60.1684 11.5918L60.1666 11.5911C60.163 11.5896 60.1596 11.5874 60.1569 11.5846C60.1552 11.583 60.1538 11.5812 60.1526 11.5792L60.1515 11.5773L60.1503 11.5748C60.1488 11.5712 60.148 11.5673 60.148 11.5633V2.93384C60.148 2.92989 60.1488 2.92598 60.1503 2.92233C60.1518 2.91868 60.1541 2.91537 60.1569 2.91257C60.1581 2.91128 60.1596 2.9101 60.1611 2.90907C60.1628 2.90787 60.1647 2.90686 60.1666 2.90606C60.1703 2.90454 60.1742 2.90377 60.1781 2.90377L64.6476 2.90474C64.6556 2.90474 64.6632 2.90157 64.6689 2.89593C64.6745 2.89029 64.6777 2.88264 64.6777 2.87466L64.6893 0.127199C64.6893 0.119222 64.6861 0.111573 64.6805 0.105933C64.6749 0.100293 64.6672 0.0971242 64.6592 0.0971242H57.356C57.348 0.0971242 57.3403 0.100293 57.3347 0.105933C57.329 0.111573 57.3259 0.119222 57.3259 0.127199L57.3181 12.4122C57.3181 12.4161 57.3189 12.4201 57.3204 12.4237C57.3219 12.4274 57.3241 12.4307 57.3269 12.4335C57.3297 12.4363 57.333 12.4385 57.3367 12.44L57.3386 12.4407L57.3412 12.4415C57.3435 12.442 57.3458 12.4423 57.3482 12.4423H64.6486C64.6565 12.4423 64.6642 12.4391 64.6698 12.4335C64.6755 12.4278 64.6786 12.4202 64.6786 12.4122L64.6767 11.6235C64.6767 11.6155 64.6735 11.6078 64.6679 11.6022C64.6623 11.5966 64.6546 11.5934 64.6466 11.5934ZM71.2417 12.4423H68.4981C68.4891 12.4423 68.4805 12.4387 68.4741 12.4323C68.4677 12.426 68.4642 12.4173 68.4642 12.4083L68.4622 2.93675C68.4622 2.92775 68.4586 2.91911 68.4523 2.91274C68.4459 2.90637 68.4373 2.9028 68.4283 2.9028L65.6925 2.90668C65.6834 2.90668 65.6748 2.9031 65.6684 2.89673C65.6621 2.89036 65.6585 2.88173 65.6585 2.87272L65.6672 0.131079C65.6672 0.122074 65.6708 0.113438 65.6772 0.10707C65.6835 0.100702 65.6922 0.0971242 65.7012 0.0971242H73.7777C73.7821 0.0971242 73.7866 0.0980024 73.7907 0.0997088C73.7948 0.101415 73.7985 0.103917 73.8017 0.10707C73.8048 0.110223 73.8073 0.113966 73.809 0.118086C73.8107 0.122205 73.8116 0.12662 73.8116 0.131079L73.8029 2.87078C73.8029 2.87979 73.7993 2.88842 73.793 2.89479C73.7866 2.90116 73.7779 2.90474 73.7689 2.90474L71.3096 2.90377C71.3006 2.90377 71.292 2.90734 71.2856 2.91371C71.2792 2.92008 71.2757 2.92872 71.2757 2.93772V12.4083C71.2757 12.4173 71.2721 12.426 71.2657 12.4323C71.2593 12.4387 71.2507 12.4423 71.2417 12.4423ZM5.10468 12.9788L0.225802 8.19693C0.221553 8.19301 0.216266 8.1904 0.210573 8.18941C0.20488 8.18842 0.199022 8.18909 0.1937 8.19134C0.188379 8.19359 0.183818 8.19733 0.180565 8.20211C0.177311 8.20688 0.175502 8.21249 0.175354 8.21827V17.782C0.175502 17.7878 0.177311 17.7934 0.180565 17.7982C0.183818 17.8029 0.188379 17.8067 0.1937 17.8089C0.199022 17.8112 0.20488 17.8119 0.210573 17.8109C0.216266 17.8099 0.221553 17.8073 0.225802 17.8033L5.10468 13.0215C5.1075 13.0187 5.10973 13.0154 5.11126 13.0117C5.11278 13.008 5.11357 13.0041 5.11357 13.0001C5.11357 12.9962 5.11278 12.9922 5.11126 12.9886C5.10973 12.9849 5.1075 12.9816 5.10468 12.9788ZM79.7722 17.8023L74.8963 13.0224C74.8933 13.0195 74.8909 13.016 74.8893 13.0122C74.8876 13.0084 74.8868 13.0042 74.8868 13.0001C74.8868 12.9959 74.8876 12.9918 74.8893 12.988C74.8909 12.9841 74.8933 12.9807 74.8963 12.9778L79.7722 8.19784C79.7766 8.19369 79.7821 8.1909 79.7881 8.18983C79.794 8.18876 79.8002 8.18946 79.8057 8.19183C79.8113 8.1942 79.8161 8.19814 79.8194 8.20317C79.8228 8.20821 79.8246 8.21411 79.8246 8.22016V17.78C79.8246 17.7861 79.8228 17.792 79.8194 17.797C79.8179 17.7993 79.8161 17.8013 79.814 17.8031C79.8116 17.8053 79.8088 17.807 79.8057 17.8083C79.8027 17.8097 79.7994 17.8104 79.7961 17.8107L79.7942 17.8108C79.7922 17.8109 79.7901 17.8107 79.7881 17.8103C79.7821 17.8093 79.7766 17.8065 79.7722 17.8023ZM25.2692 23.1013L20.8628 23.0897C20.8528 23.0897 20.8432 23.0857 20.8361 23.0786C20.829 23.0715 20.825 23.0619 20.825 23.0518L20.8327 14.4447C20.8327 14.4346 20.8367 14.425 20.8438 14.4179C20.8509 14.4108 20.8605 14.4068 20.8706 14.4068H25.2595C25.2696 14.4068 25.2792 14.4029 25.2863 14.3958C25.2934 14.3887 25.2974 14.379 25.2974 14.369L25.2993 13.5434L25.299 13.5389C25.2988 13.5371 25.2985 13.5354 25.2981 13.5337C25.2976 13.5321 25.2971 13.5305 25.2964 13.5289C25.2945 13.5243 25.2917 13.5202 25.2882 13.5167C25.2847 13.5131 25.2805 13.5104 25.276 13.5085C25.2714 13.5066 25.2664 13.5056 25.2615 13.5056L18.0639 13.5046C18.059 13.5046 18.054 13.5056 18.0495 13.5075C18.0449 13.5094 18.0407 13.5122 18.0372 13.5157C18.0337 13.5192 18.0309 13.5234 18.029 13.528C18.0271 13.5326 18.0261 13.5375 18.0261 13.5424V25.8633C18.0261 25.8734 18.0301 25.883 18.0372 25.8901C18.0443 25.8972 18.0539 25.9012 18.0639 25.9012L25.2411 25.9041C25.2511 25.9041 25.2608 25.9001 25.2679 25.893C25.275 25.8859 25.2789 25.8763 25.2789 25.8662L25.3071 23.1392C25.3071 23.1291 25.3031 23.1195 25.296 23.1124C25.2889 23.1053 25.2793 23.1013 25.2692 23.1013ZM60.1597 14.4457L60.1519 25.8663C60.1519 25.8761 60.148 25.8854 60.1411 25.8923C60.1342 25.8993 60.1248 25.9031 60.1151 25.9031H57.354C57.3442 25.9031 57.3349 25.8993 57.3279 25.8923C57.321 25.8854 57.3171 25.8761 57.3171 25.8663V13.5444C57.3171 13.5346 57.321 13.5253 57.3279 13.5183C57.3349 13.5114 57.3442 13.5075 57.354 13.5075H64.6534C64.6632 13.5075 64.6726 13.5114 64.6795 13.5183C64.6864 13.5253 64.6903 13.5346 64.6903 13.5444L64.6893 14.3652C64.6893 14.3749 64.6854 14.3843 64.6785 14.3912C64.6716 14.3981 64.6622 14.402 64.6524 14.402L60.1965 14.4088C60.1868 14.4088 60.1774 14.4127 60.1705 14.4196C60.1636 14.4265 60.1597 14.4359 60.1597 14.4457ZM30.0424 13.5046H32.7471C32.7675 13.5046 32.784 13.5211 32.784 13.5415V25.8662C32.784 25.8866 32.7675 25.9031 32.7471 25.9031H30.0424C30.022 25.9031 30.0055 25.8866 30.0055 25.8662V13.5415C30.0055 13.5211 30.022 13.5046 30.0424 13.5046ZM40.5404 22.8675C41.461 23.4632 42.7271 22.821 42.7251 21.683C42.7232 20.5964 42.719 19.4882 42.7125 18.3583C42.706 17.1715 42.3775 16.1738 41.7268 15.3654C41.3431 14.8884 40.8037 14.4586 40.2766 14.0385C40.0747 13.8776 39.8745 13.7181 39.6857 13.558C39.6462 13.5244 39.6523 13.5075 39.7041 13.5075H44.1697C44.2053 13.5075 44.234 13.5211 44.256 13.5483C45.101 14.5737 45.5065 15.931 45.5182 17.2416C45.5305 18.651 45.5289 20.1388 45.5133 21.7053C45.4891 24.0909 43.5633 25.9536 41.201 25.9022C39.3228 25.8614 37.7298 24.5692 37.268 22.7958C37.1626 22.3902 37.1186 21.889 37.1361 21.292C37.151 20.7772 37.1519 20.2701 37.139 19.7708C37.1389 19.7656 37.1398 19.7605 37.1417 19.7557C37.1436 19.7509 37.1464 19.7465 37.15 19.7428C37.1536 19.739 37.158 19.7361 37.1627 19.7341C37.1675 19.7321 37.1726 19.731 37.1778 19.7311H39.901C39.9035 19.731 39.906 19.7313 39.9084 19.7318L39.9126 19.7329L39.9154 19.7339C39.9199 19.7359 39.924 19.7387 39.9274 19.7422C39.9309 19.7457 39.9336 19.7499 39.9354 19.7545C39.9372 19.7591 39.938 19.764 39.9379 19.7689C39.9275 20.4105 39.9185 21.0217 39.9107 21.6025C39.9036 22.1697 40.1135 22.5914 40.5404 22.8675ZM52.6837 21.6908C52.6837 22.3708 52.1851 22.9539 51.5399 23.0674C50.6192 23.2304 49.881 22.559 49.8829 21.6335C49.8868 18.9662 49.8913 16.2754 49.8965 13.5609C49.8965 13.5253 49.8787 13.5075 49.8431 13.5075H47.1995C47.1555 13.5075 47.1338 13.5292 47.1345 13.5725C47.1403 16.1396 47.1374 18.7244 47.1257 21.3269C47.1225 21.9731 47.1697 22.475 47.2674 22.8326C47.7175 24.4838 49.1815 25.7586 50.9287 25.8886C52.2992 25.9895 53.4388 25.5397 54.3475 24.5391C55.09 23.7216 55.4613 22.7557 55.4613 21.6413C55.4606 18.9456 55.4635 16.2563 55.47 13.5735C55.47 13.5295 55.448 13.5075 55.404 13.5075H52.7516C52.707 13.5075 52.6847 13.5299 52.6847 13.5745C52.684 15.9869 52.6837 18.6923 52.6837 21.6908ZM71.2349 13.5075H68.503C68.481 13.5075 68.4632 13.5254 68.4632 13.5473V25.8624C68.4632 25.8844 68.481 25.9022 68.503 25.9022H71.2349C71.2569 25.9022 71.2747 25.8844 71.2747 25.8624V13.5473C71.2747 13.5254 71.2569 13.5075 71.2349 13.5075ZM11.6978 25.9079C13.4402 25.9176 14.8692 25.0261 15.6036 23.4573C15.8501 22.9302 15.9749 22.438 15.9781 21.9808C15.9872 20.567 15.9904 18.582 15.9878 16.026C15.9868 15.0646 15.8423 14.3486 15.363 13.5764C15.3449 13.5479 15.3194 13.5337 15.2864 13.5337H7.67073C7.6643 13.5337 7.65813 13.5361 7.65358 13.5405C7.64903 13.5449 7.64647 13.5508 7.64647 13.557L7.65035 25.8517C7.65035 25.8879 7.66846 25.906 7.70468 25.906C8.98334 25.8995 10.3144 25.9002 11.6978 25.9079ZM10.4269 23.0567L10.4424 14.4398C10.4424 14.4287 10.4468 14.4181 10.4547 14.4103C10.4625 14.4025 10.4731 14.3981 10.4842 14.3981L11.758 14.4C12.1412 14.4008 12.5084 14.5537 12.7789 14.8251C13.0494 15.0966 13.2011 15.4643 13.2006 15.8475L13.1909 21.6568C13.1906 21.8467 13.1529 22.0347 13.08 22.21C13.0071 22.3853 12.9003 22.5446 12.7658 22.6787C12.6313 22.8127 12.4717 22.919 12.2961 22.9913C12.1205 23.0637 11.9324 23.1007 11.7424 23.1003L10.4686 23.0984C10.4576 23.0984 10.447 23.094 10.4391 23.0862C10.4313 23.0784 10.4269 23.0677 10.4269 23.0567Z" fill="#919EAB"/>
</g>
<defs>
<clipPath id="clip0_4046_7039">
<rect width="79.6493" height="26" fill="white" transform="translate(0.175354)"/>
</clipPath>
</defs>
</svg>

<svg xmlns="http://www.w3.org/2000/svg" width="80" height="26" fill="none"><g clip-path="url(#a)"><path fill="#919EAB" fill-rule="evenodd" d="M47.145 4.318c0-1.156.452-2.228 1.279-3.035C50.685-.927 54.5.086 55.337 3.174c.102.376.15.931.145 1.666a623.885 623.885 0 0 0-.01 7.575c0 .018-.01.027-.027.027h-2.708c-.035 0-.052-.017-.051-.052l.005-8.022c.002-1.956-2.783-1.924-2.788.003-.006 2.637-.008 5.31-.006 8.018 0 .036-.018.053-.054.053H47.16c-.016 0-.025-.008-.025-.025.006-2.676.009-5.375.01-8.099ZM32.794 2.942l-.004 9.464a.036.036 0 0 1-.036.036h-2.712a.036.036 0 0 1-.036-.036l.006-9.46a.036.036 0 0 0-.036-.036l-2.699.003a.036.036 0 0 1-.025-.011.036.036 0 0 1-.01-.025l.004-2.74A.036.036 0 0 1 27.282.1L35.26.096a.036.036 0 0 1 .036.036l-.005 2.74a.036.036 0 0 1-.036.036l-2.425-.002a.036.036 0 0 0-.036.036Zm-17.206.284c-.5-1.833-2.104-3.127-4.038-3.129-1.238-.001-2.5 0-3.787.001-.078 0-.117.04-.117.118v12.226a.024.024 0 0 0 .024.024h7.346c.01 0 .02-.002.03-.007a.063.063 0 0 0 .022-.022c.441-.7.66-1.473.654-2.32-.01-1.684-.01-3.437-.002-5.258.004-.753-.04-1.297-.132-1.633Zm-5.178 8.322V2.956a.052.052 0 0 1 .052-.052h1.031a1.4 1.4 0 0 1 1.004.427c.266.273.415.643.415 1.03v5.782c0 .386-.15.757-.415 1.03a1.4 1.4 0 0 1-1.004.427h-1.031a.052.052 0 0 1-.053-.052Zm14.852.045h-4.407a.04.04 0 0 1-.04-.04V2.949a.04.04 0 0 1 .04-.04l4.382.004a.04.04 0 0 0 .04-.04l.01-2.734a.04.04 0 0 0-.04-.04H18.07a.04.04 0 0 0-.04.039l-.006 12.265c0 .011.004.021.012.029a.04.04 0 0 0 .028.011h7.197a.04.04 0 0 0 .04-.04v-.769a.04.04 0 0 0-.011-.028.04.04 0 0 0-.029-.012Zm12.907-9.96a4.094 4.094 0 0 0-.962 2.563c-.02 1.454-.023 2.956-.009 4.505.012 1.347.392 2.638 1.213 3.69a.126.126 0 0 0 .105.051h4.443c.052 0 .058-.017.02-.051-.193-.167-.4-.333-.608-.5-.475-.382-.96-.772-1.314-1.195-.706-.846-1.065-1.86-1.076-3.041-.007-.903-.005-1.98.008-3.234.003-.254.035-.46.096-.616.458-1.172 2.14-1.213 2.596-.028.075.194.108.49.101.888-.01.536-.01 1.06-.002 1.57a.036.036 0 0 0 .036.035h2.714a.046.046 0 0 0 .033-.014.049.049 0 0 0 .013-.034c-.011-.54-.01-1.053.005-1.542.018-.568-.024-1.051-.126-1.45C45.04 1.593 43.62.303 41.897.126c-1.504-.154-2.746.348-3.728 1.507Zm26.478 9.96H60.172l-.004-.001h-.001a.029.029 0 0 1-.014-.013l-.002-.002v-.002a.03.03 0 0 1-.003-.012v-8.63a.03.03 0 0 1 .019-.027.03.03 0 0 1 .011-.002h4.47a.03.03 0 0 0 .03-.03l.011-2.747a.03.03 0 0 0-.03-.03h-7.303a.03.03 0 0 0-.03.03l-.008 12.285a.03.03 0 0 0 .019.028h.002l.002.002H64.648a.03.03 0 0 0 .03-.03l-.001-.789a.03.03 0 0 0-.03-.03Zm6.595.85h-2.744a.034.034 0 0 1-.034-.035l-.002-9.471a.034.034 0 0 0-.034-.034l-2.736.004a.034.034 0 0 1-.033-.034L65.666.13a.034.034 0 0 1 .034-.034h8.077a.034.034 0 0 1 .031.021.034.034 0 0 1 .003.013l-.01 2.74a.034.034 0 0 1-.009.024.034.034 0 0 1-.024.01l-2.46-.001a.034.034 0 0 0-.033.034v9.47a.034.034 0 0 1-.034.034Zm-66.137.536L.225 8.197a.03.03 0 0 0-.05.021v9.564a.03.03 0 0 0 .036.029.03.03 0 0 0 .015-.008l4.879-4.782a.03.03 0 0 0 .006-.032.03.03 0 0 0-.006-.01Zm74.667 4.823-4.876-4.78a.031.031 0 0 1 0-.044l4.876-4.78a.031.031 0 0 1 .053.022v9.56a.03.03 0 0 1-.011.023.028.028 0 0 1-.008.005.029.029 0 0 1-.01.003h-.008a.03.03 0 0 1-.016-.009Zm-54.503 5.3-4.406-.012a.038.038 0 0 1-.038-.038l.008-8.607a.038.038 0 0 1 .038-.038h4.389a.038.038 0 0 0 .037-.038l.002-.826V13.534l-.003-.005a.037.037 0 0 0-.02-.02.038.038 0 0 0-.014-.003l-7.198-.001a.037.037 0 0 0-.027.01.038.038 0 0 0-.01.027v12.321a.038.038 0 0 0 .037.038l7.177.003a.038.038 0 0 0 .038-.038l.028-2.727a.038.038 0 0 0-.038-.038Zm34.89-8.656-.007 11.42a.037.037 0 0 1-.037.037h-2.761a.037.037 0 0 1-.037-.037V13.544a.037.037 0 0 1 .037-.037h7.3a.037.037 0 0 1 .036.037v.821a.037.037 0 0 1-.038.037l-4.456.007a.037.037 0 0 0-.036.037Zm-30.117-.941h2.705c.02 0 .037.016.037.036v12.325c0 .02-.017.037-.037.037h-2.705a.037.037 0 0 1-.037-.037V13.541c0-.02.017-.036.037-.036Zm10.498 9.362c.921.596 2.187-.046 2.185-1.184a830.558 830.558 0 0 0-.013-3.325c-.006-1.186-.335-2.184-.985-2.993-.384-.477-.923-.906-1.45-1.326-.202-.161-.403-.32-.591-.481-.04-.034-.034-.05.018-.05h4.466c.035 0 .064.013.086.04.845 1.026 1.25 2.383 1.262 3.694.013 1.409.01 2.897-.005 4.463a4.207 4.207 0 0 1-4.312 4.197 4.161 4.161 0 0 1-3.933-3.106c-.105-.406-.15-.907-.132-1.504a27.78 27.78 0 0 0 .003-1.521.039.039 0 0 1 .039-.04H39.9a.03.03 0 0 1 .007 0l.005.002h.002a.039.039 0 0 1 .02.021l.003.015c-.01.642-.02 1.253-.027 1.834-.007.567.203.988.63 1.264Zm12.144-1.176c0 .68-.499 1.263-1.144 1.376-.92.163-1.659-.508-1.657-1.433.004-2.668.008-5.359.014-8.073 0-.036-.018-.053-.054-.053H47.2c-.043 0-.065.021-.064.065.005 2.567.002 5.151-.01 7.754-.002.646.045 1.148.142 1.506.45 1.65 1.914 2.926 3.662 3.056 1.37.1 2.51-.35 3.418-1.35.743-.817 1.114-1.783 1.114-2.898 0-2.695.003-5.385.009-8.067 0-.044-.022-.066-.066-.066h-2.652c-.045 0-.067.022-.067.067l-.001 8.116Zm18.55-8.183h-2.731a.04.04 0 0 0-.04.04v12.314c0 .022.018.04.04.04h2.732a.04.04 0 0 0 .04-.04V13.547a.04.04 0 0 0-.04-.04Zm-59.536 12.4c1.742.01 3.171-.882 3.906-2.45.246-.528.37-1.02.374-1.477.01-1.414.012-3.399.01-5.955-.001-.961-.146-1.677-.625-2.45a.086.086 0 0 0-.077-.042H7.671a.025.025 0 0 0-.017.006.023.023 0 0 0-.008.017l.004 12.295c0 .036.018.054.055.054 1.278-.006 2.61-.006 3.993.002Zm-1.271-2.851.015-8.617c0-.011.005-.022.013-.03a.042.042 0 0 1 .03-.012l1.273.002a1.446 1.446 0 0 1 1.443 1.447l-.01 5.81a1.447 1.447 0 0 1-1.449 1.443l-1.273-.002a.042.042 0 0 1-.042-.042Z" clip-rule="evenodd"/></g><defs><clipPath id="a"><path fill="#fff" d="M.175 0h79.65v26H.174z"/></clipPath></defs></svg>
